www/assets/icons/5k.svg

<svg xmlns="http://www.w3.org/2000/svg" width="24" height="24" viewBox="0 0 24 24" fill='currentColor'><path d="M19 3H5c-1.1 0-2 .9-2 2v14c0 1.1.9 2 2 2h14c1.1 0 2-.9 2-2V5c0-1.1-.9-2-2-2m-8 7.5H8v1h2c.55 0 1 .45 1 1V14c0 .55-.45 1-1 1H6.5v-1.5h3v-1h-3V9H11zm7 4.5h-1.75l-1.75-2.25V15H13V9h1.5v2.25L16.25 9H18l-2.25 3z"/></svg>

<svg width="24" height="24" viewBox="0 0 24 24" xmlns="http://www.w3.org/2000/svg" fill='currentColor'><path d="M19 3H5C3.9 3 3 3.9 3 5V19C3 20.1 3.9 21 5 21H19C20.1 21 21 20.1 21 19V5C21 3.9 20.1 3 19 3ZM11 10.5H8V11.5H10C10.55 11.5 11 11.95 11 12.5V14C11 14.55 10.55 15 10 15H6.5V13.5H9.5V12.5H6.5V9H11V10.5ZM18 15H16.25L14.5 12.75V15H13V9H14.5V11.25L16.25 9H18L15.75 12L18 15Z"/></svg>
